packages/bezier-icons/icons/chat-question-filled.svg

<svg width="24" height="24" viewBox="0 0 24 24" fill="none" xmlns="http://www.w3.org/2000/svg">
<path fill-rule="evenodd" clip-rule="evenodd" d="M20.8223 16.683C20.5763 17.144 20.5573 17.694 20.7233 18.19L21.3613 20.105C21.6223 20.886 20.8793 21.63 20.0973 21.37C19.6395 21.2172 19.1583 21.0569 18.7279 20.9135C18.5302 20.8476 18.3433 20.7853 18.1743 20.729C17.6813 20.565 17.1373 20.584 16.6783 20.829C14.7293 21.868 12.4033 22.29 9.94729 21.796C5.94629 20.991 2.78229 17.703 2.12929 13.675C1.02329 6.848 6.83729 1.033 13.6643 2.137C17.6933 2.789 20.9823 5.954 21.7873 9.954C22.2813 12.409 21.8613 14.734 20.8223 16.683ZM12.8307 14.541H10.9299V13.8327C10.9299 12.6772 11.5552 11.5937 12.6016 10.9334C13.469 10.3871 13.9392 9.99397 13.9392 9.48575C13.9392 8.47229 12.9388 7.92505 11.9984 7.92505C10.9639 7.92505 10.0575 8.65438 10.0575 9.48575H8.15665C8.15665 7.60991 9.91543 6.0242 11.9984 6.0242C14.1523 6.0242 15.8401 7.54488 15.8401 9.48575C15.8401 11.1395 14.4475 12.0179 13.6151 12.5411C13.379 12.6902 12.8307 13.1144 12.8307 13.8327V14.541ZM13.1849 16.9288C13.1849 17.6161 12.6286 18.1723 11.9413 18.1723C11.255 18.1723 10.6978 17.6161 10.6978 16.9288C10.6978 16.2415 11.255 15.6852 11.9413 15.6852C12.6286 15.6852 13.1849 16.2415 13.1849 16.9288Z" fill="#313234"/>
</svg>

<svg xmlns="http://www.w3.org/2000/svg" width="24" height="24" fill="none" viewBox="0 0 24 24"><path fill="#313234" fill-rule="evenodd" d="M20.822 16.683c-.246.461-.265 1.011-.099 1.507l.638 1.915a1 1 0 0 1-1.264 1.265l-1.37-.457-.553-.184c-.493-.164-1.037-.145-1.496.1-1.949 1.039-4.275 1.461-6.73.967-4.002-.805-7.166-4.093-7.819-8.121A10.013 10.013 0 0 1 13.664 2.137c4.03.652 7.318 3.817 8.123 7.817.494 2.455.074 4.78-.965 6.729m-7.991-2.142H10.93v-.708c0-1.156.625-2.24 1.672-2.9.867-.546 1.337-.939 1.337-1.447 0-1.014-1-1.561-1.94-1.561-1.035 0-1.942.73-1.942 1.56h-1.9c0-1.875 1.758-3.46 3.841-3.46 2.154 0 3.842 1.52 3.842 3.46 0 1.655-1.392 2.533-2.225 3.056-.236.15-.784.573-.784 1.292zm.354 2.388a1.243 1.243 0 1 1-2.486.001 1.243 1.243 0 0 1 2.486-.001" clip-rule="evenodd"/></svg>
